X:16
T:Miss Ramsey's
T:Lady Mary Ramsay
R:strathspey
C:Nathaniel Gow (1763-1831), Scotland
H:See also reel#445, reel#924. Also played as a fling "The Queen's Shilling" in G.
Z:id:hn-strathspey-16
M:C
L:1/8
K:D
D2DB A<FFG | A<FdB A<FFE | D2DB A<FFA |1 (3Bcd AF E2EF :|2 (3Bcd AF E2Ee ||
|: f<ddf e<cce | dcdB A<FFe |1 f<ddf e<cce | (3dcB AF E2Ee :|
[2 (3fed (3edc (3dcB A2 | (3Bcd AF E2EF ||
P:variations
|: D2DB A<FF2 | AFdB A<FFE | D2DB A<FFA |1 (3Bcd AF EGFE :|2 (3Bcd AF E3g ||
|: f<ddf e<cce | dcdB A<FF2 |1 f<ddf e<ccA | (3Bcd AF E2Eg :|
[2 (3fed (3edc (3dcB A2 | (3Bcd (3AGF E3F ||

